images/icons/houzz.svg

<svg width="48" height="53" viewBox="0 0 48 53" fill="none" xmlns="http://www.w3.org/2000/svg">
<path d="M17.1205 33.8856V50.4416H3.00581V3.21897H12.1431V14.5136L45.2698 23.999V50.4416H31.1791V33.8856H17.1205ZM47.7338 52.9043V22.1416L14.6031 12.6563V0.754967H0.541809V52.9043H19.5818V36.3496H28.7151V52.9043H47.7338Z" fill="white"/>
</svg>

<svg width="48" height="53" fill="none" xmlns="http://www.w3.org/2000/svg"><path d="M17.12 33.886v16.556H3.006V3.219h9.137v11.295l33.127 9.485v26.443H31.18V33.886H17.12zm30.614 19.018V22.142l-33.13-9.486V.755H.541v52.15h19.04V36.35h9.133v16.554h19.019z" fill="#fff"/></svg>
